_includes/icons/color-briefcase.svg

<svg fill="#666" height="50" viewBox="0 0 48 48" width="50" xmlns="http://www.w3.org/2000/svg"><path d="m27 7h-6c-1.699219 0-3 1.300781-3 3v3h2v-3c0-.601562.398438-1 1-1h6c.601563 0 1 .398438 1 1v3h2v-3c0-1.699219-1.300781-3-3-3z" fill="#424242"/><path d="m40 43h-32c-2.199219 0-4-1.800781-4-4v-24c0-2.199219 1.800781-4 4-4h32c2.199219 0 4 1.800781 4 4v24c0 2.199219-1.800781 4-4 4z" fill="#e65100"/><path d="m40 28h-32c-2.199219 0-4-1.800781-4-4v-9c0-2.199219 1.800781-4 4-4h32c2.199219 0 4 1.800781 4 4v9c0 2.199219-1.800781 4-4 4z" fill="#ff6e40"/><path d="m26 26h-4c-.601562 0-1-.398437-1-1v-2c0-.601562.398438-1 1-1h4c.601563 0 1 .398438 1 1v2c0 .601563-.398437 1-1 1z" fill="#fff3e0"/></svg>

<svg xmlns="http://www.w3.org/2000/svg" viewBox="0 0 48 48" width="50" height="50" fill="#666"><path d="M 27 7 L 21 7 C 19.300781 7 18 8.300781 18 10 L 18 13 L 20 13 L 20 10 C 20 9.398438 20.398438 9 21 9 L 27 9 C 27.601563 9 28 9.398438 28 10 L 28 13 L 30 13 L 30 10 C 30 8.300781 28.699219 7 27 7 Z" fill="#424242"/><path d="M 40 43 L 8 43 C 5.800781 43 4 41.199219 4 39 L 4 15 C 4 12.800781 5.800781 11 8 11 L 40 11 C 42.199219 11 44 12.800781 44 15 L 44 39 C 44 41.199219 42.199219 43 40 43 Z" fill="#e65100"/><path d="M 40 28 L 8 28 C 5.800781 28 4 26.199219 4 24 L 4 15 C 4 12.800781 5.800781 11 8 11 L 40 11 C 42.199219 11 44 12.800781 44 15 L 44 24 C 44 26.199219 42.199219 28 40 28 Z" fill="#ff6e40"/><path d="M 26 26 L 22 26 C 21.398438 26 21 25.601563 21 25 L 21 23 C 21 22.398438 21.398438 22 22 22 L 26 22 C 26.601563 22 27 22.398438 27 23 L 27 25 C 27 25.601563 26.601563 26 26 26 Z" fill="#fff3e0"/></svg>
